usr/share/icons/Stylish/48/mimetypes/x-office-spreadsheet.svg

<?xml version="1.0" encoding="UTF-8" standalone="no"?>
<!-- Created with Inkscape (http://www.inkscape.org/) -->

<svg
   width="48"
   height="48"
   viewBox="0 0 48 48.000003"
   version="1.1"
   id="svg5"
   inkscape:version="1.2.1 (9c6d41e410, 2022-07-14)"
   sodipodi:docname="x-office-spreadsheet.svg"
   xmlns:inkscape="http://www.inkscape.org/namespaces/inkscape"
   xmlns:sodipodi="http://sodipodi.sourceforge.net/DTD/sodipodi-0.dtd"
   xmlns="http://www.w3.org/2000/svg"
   xmlns:svg="http://www.w3.org/2000/svg">
  <sodipodi:namedview
     id="namedview7"
     pagecolor="#ffffff"
     bordercolor="#000000"
     borderopacity="0.25"
     inkscape:showpageshadow="2"
     inkscape:pageopacity="0.0"
     inkscape:pagecheckerboard="0"
     inkscape:deskcolor="#d1d1d1"
     inkscape:document-units="px"
     showgrid="false"
     inkscape:zoom="17.041667"
     inkscape:cx="24"
     inkscape:cy="24"
     inkscape:window-width="1920"
     inkscape:window-height="1004"
     inkscape:window-x="0"
     inkscape:window-y="0"
     inkscape:window-maximized="1"
     inkscape:current-layer="svg5" />
  <defs
     id="defs2" />
  <path
     id="rect234"
     style="opacity:0.2;stroke-width:0.75;stroke-linecap:round;stroke-linejoin:round"
     d="m 10,4 h 19 l 12,12 v 27 c 0,1.662 -1.338,3 -3,3 H 10 C 8.338,46 7,44.662 7,43 V 7 C 7,5.338 8.338,4 10,4 Z"
     sodipodi:nodetypes="sccssssss" />
  <path
     id="rect448"
     style="fill:#5f9c56;fill-opacity:1;stroke-width:0.75;stroke-linecap:round;stroke-linejoin:round"
     d="m 10,3 h 19 l 4.5,7.5 7.5,4.5 v 27 c 0,1.662 -1.338,3 -3,3 H 10 C 8.338,45 7,43.662 7,42 V 6 C 7,4.338 8.338,3 10,3 Z"
     sodipodi:nodetypes="scccssssss" />
  <path
     d="m 41,16 h -9 c -1.662,0 -3,-1.338 -3,-3 V 3 l 12,12 z"
     style="opacity:0.2;fill:#000000;stroke-width:0.75;stroke-linecap:round;stroke-linejoin:round"
     id="path611"
     sodipodi:nodetypes="cssccc" />
  <path
     id="rect600"
     style="fill:#a0c89b;fill-opacity:1;stroke-width:0.75;stroke-linecap:round;stroke-linejoin:round"
     d="m 41,15 h -9 c -1.662,0 -3,-1.338 -3,-3 V 3 l 6,6 z"
     sodipodi:nodetypes="cssccc" />
  <path
     id="rect1373"
     style="fill:#ffffff;stroke-width:2.16024;stroke-linecap:round;stroke-linejoin:round"
     d="M 13,23 V 37.000001 H 35 V 23 Z m 2,2.000001 h 8 v 4 h -8 z m 10,0 h 8 v 4 h -8 z m -10,6 h 8 v 4 h -8 z m 10,0 h 8 v 4 h -8 z"
     sodipodi:nodetypes="ccccccccccccccccccccccccc" />
</svg>

<?xml version="1.0" encoding="UTF-8" standalone="no"?>
<!-- Created with Inkscape (http://www.inkscape.org/) -->

<svg
   width="48"
   height="48"
   viewBox="0 0 48 48.000003"
   version="1.1"
   id="svg5"
   inkscape:version="1.2.2 (1:1.2.2+202305151914+b0a8486541)"
   sodipodi:docname="x-office-spreadsheet.svg"
   xmlns:inkscape="http://www.inkscape.org/namespaces/inkscape"
   xmlns:sodipodi="http://sodipodi.sourceforge.net/DTD/sodipodi-0.dtd"
   xmlns:xlink="http://www.w3.org/1999/xlink"
   xmlns="http://www.w3.org/2000/svg"
   xmlns:svg="http://www.w3.org/2000/svg">
  <sodipodi:namedview
     id="namedview7"
     pagecolor="#ffffff"
     bordercolor="#000000"
     borderopacity="0.25"
     inkscape:showpageshadow="2"
     inkscape:pageopacity="0.0"
     inkscape:pagecheckerboard="0"
     inkscape:deskcolor="#d1d1d1"
     inkscape:document-units="px"
     showgrid="false"
     inkscape:zoom="16.458333"
     inkscape:cx="23.96962"
     inkscape:cy="24"
     inkscape:window-width="1920"
     inkscape:window-height="1012"
     inkscape:window-x="0"
     inkscape:window-y="0"
     inkscape:window-maximized="1"
     inkscape:current-layer="svg5" />
  <defs
     id="defs2">
    <linearGradient
       inkscape:collect="always"
       id="linearGradient871">
      <stop
         style="stop-color:#4ba41c;stop-opacity:1;"
         offset="0"
         id="stop867" />
      <stop
         style="stop-color:#8ed64e;stop-opacity:1;"
         offset="1"
         id="stop869" />
    </linearGradient>
    <linearGradient
       inkscape:collect="always"
       xlink:href="#linearGradient871"
       id="linearGradient1085"
       x1="10"
       y1="3"
       x2="38"
       y2="45"
       gradientUnits="userSpaceOnUse" />
  </defs>
  <path
     id="rect234"
     style="opacity:0.2;stroke-width:0.75;stroke-linecap:round;stroke-linejoin:round"
     d="m 10,4 h 19 l 12,12 v 27 c 0,1.662 -1.338,3 -3,3 H 10 C 8.338,46 7,44.662 7,43 V 7 C 7,5.338 8.338,4 10,4 Z"
     sodipodi:nodetypes="sccssssss" />
  <path
     id="rect448"
     style="fill:url(#linearGradient1085);fill-opacity:1;stroke-width:0.75;stroke-linecap:round;stroke-linejoin:round"
     d="m 10,3 h 19 l 4.5,7.5 7.5,4.5 v 27 c 0,1.662 -1.338,3 -3,3 H 10 C 8.338,45 7,43.662 7,42 V 6 C 7,4.338 8.338,3 10,3 Z"
     sodipodi:nodetypes="scccssssss" />
  <path
     d="m 41,16 h -9 c -1.662,0 -3,-1.338 -3,-3 V 3 l 12,12 z"
     style="opacity:0.2;fill:#000000;stroke-width:0.75;stroke-linecap:round;stroke-linejoin:round"
     id="path611"
     sodipodi:nodetypes="cssccc" />
  <path
     id="rect600"
     style="fill:#8fde85;fill-opacity:1;stroke-width:0.75;stroke-linecap:round;stroke-linejoin:round"
     d="m 41,15 h -9 c -1.662,0 -3,-1.338 -3,-3 V 3 l 6,6 z"
     sodipodi:nodetypes="cssccc" />
  <path
     id="rect1373"
     style="fill:#ffffff;stroke-width:2.16024;stroke-linecap:round;stroke-linejoin:round"
     d="M 15 23 A 2 2 0 0 0 13 25 L 13 35 A 2 2 0 0 0 15 37 L 33 37 A 2 2 0 0 0 35 35 L 35 25 A 2 2 0 0 0 33 23 L 15 23 z M 15 25 L 23 25 L 23 29 L 15 29 L 15 25 z M 25 25 L 33 25 L 33 29 L 25 29 L 25 25 z M 15 31 L 23 31 L 23 35 L 15 35 L 15 31 z M 25 31 L 33 31 L 33 35 L 25 35 L 25 31 z " />
</svg>
